svgs/light/square-b.svg

<svg xmlns="http://www.w3.org/2000/svg" viewBox="0 0 448 512"><!--! Font Awesome Pro 6.6.0 by @fontawesome - https://fontawesome.com License - https://fontawesome.com/license (Commercial License) Copyright 2024 Fonticons, Inc. --><path d="M64 64C46.3 64 32 78.3 32 96l0 320c0 17.7 14.3 32 32 32l320 0c17.7 0 32-14.3 32-32l0-320c0-17.7-14.3-32-32-32L64 64zM0 96C0 60.7 28.7 32 64 32l320 0c35.3 0 64 28.7 64 64l0 320c0 35.3-28.7 64-64 64L64 480c-35.3 0-64-28.7-64-64L0 96zm128 64c0-17.7 14.3-32 32-32l88 0c39.8 0 72 32.2 72 72c0 19.3-7.6 36.8-19.9 49.7C321.6 262.2 336 285.4 336 312c0 39.8-32.2 72-72 72l-104 0c-17.7 0-32-14.3-32-32l0-96 0-96zm160 40c0-22.1-17.9-40-40-40l-88 0 0 80 88 0c22.1 0 40-17.9 40-40zM160 352l104 0c22.1 0 40-17.9 40-40s-17.9-40-40-40l-16 0-88 0 0 80z"/></svg>

<svg xmlns="http://www.w3.org/2000/svg" viewBox="0 0 448 512"><!--! Font Awesome Pro 6.5.2 by @fontawesome - https://fontawesome.com License - https://fontawesome.com/license (Commercial License) Copyright 2024 Fonticons, Inc. --><path d="M64 64C46.3 64 32 78.3 32 96V416c0 17.7 14.3 32 32 32H384c17.7 0 32-14.3 32-32V96c0-17.7-14.3-32-32-32H64zM0 96C0 60.7 28.7 32 64 32H384c35.3 0 64 28.7 64 64V416c0 35.3-28.7 64-64 64H64c-35.3 0-64-28.7-64-64V96zm128 64c0-17.7 14.3-32 32-32h88c39.8 0 72 32.2 72 72c0 19.3-7.6 36.8-19.9 49.7C321.6 262.2 336 285.4 336 312c0 39.8-32.2 72-72 72H160c-17.7 0-32-14.3-32-32V256 160zm160 40c0-22.1-17.9-40-40-40H160v80h88c22.1 0 40-17.9 40-40zM160 352H264c22.1 0 40-17.9 40-40s-17.9-40-40-40H248 160v80z"/></svg>
